; generated by PrusaSlicer 2.3.1+linux-x64 on 2021-09-08 at 11:46:05 UTC

; 

; external perimeters extrusion width = 0.45mm
; perimeters extrusion width = 0.45mm
; infill extrusion width = 0.45mm
; solid infill extrusion width = 0.45mm
; top infill extrusion width = 0.40mm
; first layer extrusion width = 0.42mm

M201 X500 Y500 Z100 E5000 ; sets maximum accelerations, mm/sec^2
M203 X500 Y500 Z10 E60 ; sets maximum feedrates, mm/sec
M204 P500 R1000 T500 ; sets acceleration (P, T) and retract acceleration (R), mm/sec^2
M205 X8.00 Y8.00 Z0.40 E5.00 ; sets the jerk limits, mm/sec
M205 S0 T0 ; sets the minimum extruding and travel feed rate, mm/sec
M107
;TYPE:Custom
G90 ; use absolute coordinates
M83 ; extruder relative mode
M140 S60 ; set final bed temp
M104 S150 ; set temporary nozzle temp to prevent oozing during homing
G4 S10 ; allow partial nozzle warmup
G28 ; home all axis
G29 A; auto bed levelling
G1 Z50 F240
G1 X2 Y10 F3000
M104 S210 ; set final nozzle temp
M190 S60 ; wait for bed temp to stabilize
M109 S210 ; wait for nozzle temp to stabilize
G1 Z0.28 F240
G92 E0
G1 Y140 E10 F1500 ; prime the nozzle
G1 X2.3 F5000
G92 E0
G1 Y10 E10 F1200 ; prime the nozzle
G92 E0
G21 ; set units to millimeters
G90 ; use absolute coordinates
M83 ; use relative distances for extrusion
; Filament gcode
;LAYER_CHANGE
;Z:0.2
;HEIGHT:0.2
;CT_LAYER:0
G1 E-1.00000 F3600.000
G1 Z0.200 F9000.000
;AFTER_LAYER_CHANGE
;0.2
G1 X93.515 Y103.823
G1 E1.00000 F2400.000
M204 S500
;TYPE:Skirt
;WIDTH:0.42
G1 F1200.000
G1 X94.733 Y102.774 E0.05041
G1 X95.657 Y102.249 E0.03332
G1 X96.392 Y101.952 E0.02484
G1 X97.381 Y101.697 E0.03204
G1 X98.447 Y101.589 E0.03360
G1 X141.680 Y101.588 E1.35554
G1 X142.864 Y101.703 E0.03729
G1 X144.036 Y102.030 E0.03815
G1 X145.321 Y102.672 E0.04504
G1 X146.278 Y103.407 E0.03784
G1 X147.063 Y104.258 E0.03630
G1 X147.719 Y105.278 E0.03800
G1 X148.252 Y106.606 E0.04489
G1 X148.480 Y107.787 E0.03771
G1 X148.482 Y132.200 E0.76543
G1 X148.150 Y133.722 E0.04885
G1 X147.600 Y134.938 E0.04184
G1 X146.679 Y136.194 E0.04884
G1 X145.476 Y137.226 E0.04971
G1 X144.557 Y137.749 E0.03315
G1 X143.818 Y138.048 E0.02500
G1 X142.827 Y138.304 E0.03207
G1 X141.762 Y138.411 E0.03358
G1 X98.415 Y138.410 E1.35910
G1 X96.807 Y138.175 E0.05096
G1 X95.277 Y137.559 E0.05174
G1 X93.931 Y136.593 E0.05194
G1 X92.878 Y135.372 E0.05054
G1 X92.355 Y134.451 E0.03319
G1 X92.061 Y133.726 E0.02454
G1 X91.804 Y132.741 E0.03191
G1 X91.696 Y131.716 E0.03232
G1 X91.698 Y108.238 E0.73614
G1 X91.936 Y106.680 E0.04942
G1 X92.556 Y105.153 E0.05168
G1 X93.480 Y103.871 E0.04952
G1 E-0.70000 F3600.000
;WIPE_START
G1 F7200.000
G1 X93.931 Y103.476 E-0.28500
;WIPE_END
G1 E-0.01500 F3600.000
G1 X107.820 Y113.687 F9000.000
G1 E1.00000 F2400.000
;TYPE:Perimeter
G1 F1200.000
G1 X132.389 Y113.687 E0.77034
G1 X139.760 Y106.332 E0.32650
G1 X140.142 Y106.057 E0.01474
G1 X140.322 Y105.958 E0.00645
G1 X140.758 Y105.782 E0.01474
G1 X141.216 Y105.679 E0.01474
G1 X141.421 Y105.658 E0.00644
G1 X141.891 Y105.668 E0.01474
G1 X142.353 Y105.753 E0.01474
G1 X142.549 Y105.814 E0.00645
G1 X142.989 Y106.012 E0.01511
G1 X143.165 Y106.118 E0.00645
G1 X143.535 Y106.408 E0.01474
G1 X143.853 Y106.753 E0.01473
G1 X143.974 Y106.920 E0.00645
G1 X144.200 Y107.332 E0.01474
G1 X144.358 Y107.774 E0.01473
G1 X144.436 Y108.202 E0.01363
G1 X144.446 Y108.684 E0.01511
G1 X144.425 Y108.888 E0.00644
G1 X144.320 Y109.358 E0.01511
G1 X144.251 Y109.552 E0.00645
G1 X144.041 Y109.973 E0.01474
G1 X143.766 Y110.354 E0.01473
G1 X143.609 Y110.524 E0.00725
G1 X136.418 Y117.715 E0.31888
G1 X136.418 Y122.285 E0.14326
G1 X143.601 Y129.468 E0.31851
G1 X143.914 Y129.836 E0.01517
G1 X144.151 Y130.228 E0.01436
G1 X144.322 Y130.653 E0.01437
G1 X144.423 Y131.100 E0.01436
G1 X144.451 Y131.569 E0.01473
G1 X144.439 Y131.774 E0.00645
G1 X144.354 Y132.237 E0.01474
G1 X144.196 Y132.679 E0.01473
G1 X144.104 Y132.863 E0.00645
G1 X143.845 Y133.255 E0.01473
G1 X143.535 Y133.592 E0.01436
G1 X143.174 Y133.875 E0.01436
G1 X142.762 Y134.101 E0.01474
G1 X142.572 Y134.178 E0.00644
G1 X142.118 Y134.300 E0.01473
G1 X141.662 Y134.346 E0.01437
G1 X141.193 Y134.318 E0.01473
G1 X140.991 Y134.280 E0.00645
G1 X140.542 Y134.141 E0.01474
G1 X140.132 Y133.936 E0.01437
G1 X139.751 Y133.661 E0.01473
G1 X139.581 Y133.504 E0.00725
G1 X132.389 Y126.313 E0.31888
G1 X107.820 Y126.313 E0.77035
G1 X100.637 Y133.496 E0.31851
G1 X100.268 Y133.810 E0.01517
G1 X99.876 Y134.047 E0.01436
G1 X99.451 Y134.218 E0.01436
G1 X99.005 Y134.318 E0.01436
G1 X98.535 Y134.347 E0.01473
G1 X98.330 Y134.334 E0.00645
G1 X97.868 Y134.249 E0.01474
G1 X97.436 Y134.096 E0.01436
G1 X97.025 Y133.869 E0.01474
G1 X96.858 Y133.749 E0.00645
G1 X96.512 Y133.430 E0.01473
G1 X96.230 Y133.069 E0.01436
G1 X96.009 Y132.668 E0.01436
G1 X95.851 Y132.226 E0.01473
G1 X95.806 Y132.025 E0.00645
G1 X95.759 Y131.557 E0.01474
G1 X95.787 Y131.088 E0.01474
G1 X95.824 Y130.886 E0.00644
G1 X95.964 Y130.437 E0.01474
G1 X96.169 Y130.027 E0.01436
G1 X96.443 Y129.646 E0.01473
G1 X96.600 Y129.476 E0.00725
G1 X103.792 Y122.285 E0.31888
G1 X103.792 Y117.715 E0.14326
G1 X96.609 Y110.532 E0.31851
G1 X96.295 Y110.164 E0.01517
G1 X96.052 Y109.762 E0.01473
G1 X95.968 Y109.574 E0.00645
G1 X95.828 Y109.125 E0.01474
G1 X95.763 Y108.671 E0.01438
G1 X95.771 Y108.224 E0.01403
G1 X95.802 Y107.996 E0.00720
G1 X95.923 Y107.544 E0.01467
G1 X96.111 Y107.127 E0.01436
G1 X96.364 Y106.745 E0.01436
G1 X96.675 Y106.408 E0.01436
G1 X97.044 Y106.118 E0.01474
G1 X97.220 Y106.012 E0.00645
G1 X97.649 Y105.819 E0.01474
G1 X98.091 Y105.700 E0.01436
G1 X98.547 Y105.654 E0.01436
G1 X99.005 Y105.682 E0.01436
G1 X99.451 Y105.782 E0.01436
G1 X99.887 Y105.958 E0.01474
G1 X100.068 Y106.057 E0.00645
G1 X100.459 Y106.339 E0.01511
G1 X100.629 Y106.496 E0.00725
G1 X107.778 Y113.645 E0.31700
G1 X107.976 Y113.310 F9000.000
;TYPE:External perimeter
G1 F1200.000
G1 X132.233 Y113.310 E0.76055
G1 X139.515 Y106.044 E0.32255
G1 X139.940 Y105.738 E0.01641
G1 X140.160 Y105.617 E0.00788
G1 X140.645 Y105.421 E0.01641
G1 X141.156 Y105.306 E0.01641
G1 X141.406 Y105.281 E0.00787
G1 X141.929 Y105.292 E0.01641
G1 X142.443 Y105.386 E0.01641
G1 X142.683 Y105.461 E0.00788
G1 X143.164 Y105.677 E0.01654
G1 X143.379 Y105.807 E0.00788
G1 X143.791 Y106.130 E0.01641
G1 X144.146 Y106.514 E0.01640
G1 X144.293 Y106.718 E0.00788
G1 X144.545 Y107.177 E0.01641
G1 X144.721 Y107.669 E0.01640
G1 X144.813 Y108.172 E0.01601
G1 X144.824 Y108.699 E0.01654
G1 X144.798 Y108.949 E0.00788
G1 X144.682 Y109.464 E0.01654
G1 X144.598 Y109.700 E0.00788
G1 X144.364 Y110.168 E0.01641
G1 X144.059 Y110.593 E0.01640
G1 X143.881 Y110.785 E0.00821
G1 X136.795 Y117.872 E0.31422
G1 X136.795 Y122.128 E0.13347
G1 X143.878 Y129.212 E0.31409
G1 X144.221 Y129.615 E0.01660
G1 X144.490 Y130.059 E0.01627
G1 X144.683 Y130.541 E0.01627
G1 X144.797 Y131.047 E0.01627
G1 X144.829 Y131.569 E0.01641
G1 X144.814 Y131.820 E0.00788
G1 X144.720 Y132.335 E0.01641
G1 X144.544 Y132.827 E0.01640
G1 X144.432 Y133.052 E0.00788
G1 X144.143 Y133.489 E0.01640
G1 X143.791 Y133.870 E0.01627
G1 X143.383 Y134.190 E0.01627
G1 X142.924 Y134.443 E0.01641
G1 X142.691 Y134.537 E0.00788
G1 X142.186 Y134.672 E0.01640
G1 X141.670 Y134.724 E0.01627
G1 X141.147 Y134.693 E0.01640
G1 X140.900 Y134.647 E0.00788
G1 X140.401 Y134.492 E0.01641
G1 X139.936 Y134.260 E0.01627
G1 X139.512 Y133.954 E0.01640
G1 X139.319 Y133.776 E0.00821
G1 X132.233 Y126.690 E0.31422
G1 X107.976 Y126.690 E0.76056
G1 X100.893 Y133.773 E0.31409
G1 X100.490 Y134.117 E0.01660
G1 X100.045 Y134.385 E0.01627
G1 X99.564 Y134.579 E0.01627
G1 X99.058 Y134.693 E0.01627
G1 X98.535 Y134.724 E0.01640
G1 X98.285 Y134.709 E0.00788
G1 X97.770 Y134.615 E0.01641
G1 X97.281 Y134.441 E0.01627
G1 X96.823 Y134.188 E0.01641
G1 X96.619 Y134.041 E0.00788
G1 X96.234 Y133.687 E0.01640
G1 X95.914 Y133.278 E0.01627
G1 X95.664 Y132.823 E0.01627
G1 X95.488 Y132.331 E0.01640
G1 X95.433 Y132.086 E0.00788
G1 X95.381 Y131.565 E0.01641
G1 X95.412 Y131.043 E0.01641
G1 X95.457 Y130.796 E0.00788
G1 X95.613 Y130.296 E0.01641
G1 X95.845 Y129.832 E0.01627
G1 X96.151 Y129.407 E0.01640
G1 X96.328 Y129.215 E0.00821
G1 X103.415 Y122.128 E0.31422
G1 X103.415 Y117.872 E0.13347
G1 X96.331 Y110.788 E0.31409
G1 X95.988 Y110.385 E0.01660
G1 X95.717 Y109.937 E0.01640
G1 X95.614 Y109.708 E0.00788
G1 X95.459 Y109.209 E0.01641
G1 X95.386 Y108.695 E0.01628
G1 X95.395 Y108.195 E0.01566
G1 X95.432 Y107.922 E0.00864
G1 X95.567 Y107.417 E0.01638
G1 X95.780 Y106.944 E0.01627
G1 X96.066 Y106.511 E0.01627
G1 X96.418 Y106.130 E0.01627
G1 X96.830 Y105.807 E0.01641
G1 X97.045 Y105.677 E0.00788
G1 X97.522 Y105.462 E0.01641
G1 X98.023 Y105.328 E0.01627
G1 X98.540 Y105.276 E0.01627
G1 X99.058 Y105.307 E0.01627
G1 X99.564 Y105.421 E0.01627
G1 X100.049 Y105.617 E0.01641
G1 X100.269 Y105.738 E0.00788
G1 X100.697 Y106.046 E0.01654
G1 X100.890 Y106.224 E0.00821
G1 X107.934 Y113.268 E0.31234
G1 X108.080 Y113.696 F9000.000
G1 E-0.70000 F3600.000
;WIPE_START
G1 F7200.000
G1 X108.534 Y113.269 E-0.28500
;WIPE_END
G1 E-0.01500 F3600.000
G1 X144.088 Y107.362 F9000.000
G1 E1.00000 F2400.000
;TYPE:Solid infill
;WIDTH:0.420951
G1 F1200.000
G1 X143.342 Y106.616 E0.03316
G1 X143.004 Y106.351 E0.01350
G1 X142.857 Y106.262 E0.00539
G1 X142.449 Y106.079 E0.01407
G1 X142.204 Y106.013 E0.00797
G1 X144.094 Y107.903 E0.08402
G1 X144.154 Y108.231 E0.01047
G1 X144.160 Y108.503 E0.00857
G1 X141.602 Y105.945 E0.11371
G1 X141.432 Y105.942 E0.00533
G1 X141.114 Y105.992 E0.01013
G1 X144.113 Y108.991 E0.13329
G1 X144.000 Y109.413 E0.01373
G1 X140.698 Y106.111 E0.14676
G1 X140.329 Y106.277 E0.01272
G1 X143.825 Y109.772 E0.15538
G1 X143.608 Y110.090 E0.01209
G1 X140.015 Y106.497 E0.15971
G1 X139.738 Y106.754 E0.01189
G1 X143.358 Y110.375 E0.16095
G1 X143.091 Y110.642 E0.01188
G1 X139.470 Y107.021 E0.16097
G1 X139.202 Y107.288 E0.01188
G1 X142.824 Y110.909 E0.16098
G1 X142.556 Y111.177 E0.01188
G1 X138.935 Y107.555 E0.16099
G1 X138.667 Y107.822 E0.01188
G1 X142.289 Y111.444 E0.16101
G1 X142.022 Y111.711 E0.01188
G1 X138.400 Y108.089 E0.16102
G1 X138.132 Y108.356 E0.01188
G1 X141.754 Y111.979 E0.16103
G1 X141.487 Y112.246 E0.01188
G1 X137.864 Y108.623 E0.16105
G1 X137.597 Y108.890 E0.01188
G1 X141.220 Y112.513 E0.16106
G1 X140.952 Y112.781 E0.01188
G1 X137.329 Y109.157 E0.16107
G1 X137.062 Y109.424 E0.01188
G1 X140.685 Y113.048 E0.16108
G1 X140.418 Y113.315 E0.01188
G1 X136.794 Y109.691 E0.16110
G1 X136.526 Y109.958 E0.01188
G1 X140.151 Y113.582 E0.16111
G1 X139.883 Y113.850 E0.01188
G1 X136.259 Y110.225 E0.16112
G1 X135.991 Y110.492 E0.01188
G1 X139.616 Y114.117 E0.16114
G1 X139.349 Y114.384 E0.01188
G1 X135.723 Y110.759 E0.16115
G1 X135.456 Y111.026 E0.01188
G1 X139.081 Y114.652 E0.16116
G1 X138.814 Y114.919 E0.01188
G1 X135.188 Y111.293 E0.16118
G1 X134.921 Y111.560 E0.01188
G1 X138.547 Y115.186 E0.16119
G1 X138.279 Y115.454 E0.01188
G1 X134.653 Y111.827 E0.16120
G1 X134.385 Y112.094 E0.01188
G1 X138.012 Y115.721 E0.16122
G1 X137.745 Y115.988 E0.01188
G1 X134.118 Y112.361 E0.16123
G1 X133.850 Y112.628 E0.01188
G1 X137.477 Y116.256 E0.16124
G1 X137.210 Y116.523 E0.01188
G1 X133.583 Y112.895 E0.16125
G1 X133.315 Y113.162 E0.01188
G1 X136.943 Y116.790 E0.16127
G1 X136.676 Y117.057 E0.01188
G1 X133.047 Y113.429 E0.16128
G1 X132.780 Y113.696 E0.01188
G1 X136.408 Y117.325 E0.16129
G1 X136.141 Y117.592 E0.01188
G1 X132.512 Y113.963 E0.16131
G1 X131.984 Y113.970 E0.01660
G1 X136.135 Y118.120 E0.18451
G1 X136.135 Y118.655 E0.01680
G1 X131.450 Y113.970 E0.20827
G1 X130.915 Y113.970 E0.01680
G1 X136.135 Y119.190 E0.23204
G1 X136.135 Y119.724 E0.01680
G1 X130.380 Y113.970 E0.25581
G1 X129.846 Y113.970 E0.01680
G1 X136.135 Y120.259 E0.27957
G1 X136.135 Y120.794 E0.01680
G1 X129.311 Y113.970 E0.30334
G1 X128.776 Y113.970 E0.01680
G1 X136.135 Y121.328 E0.32710
G1 X136.135 Y121.863 E0.01680
G1 X128.242 Y113.970 E0.35087
G1 X127.707 Y113.970 E0.01680
G1 X143.393 Y129.660 E0.69737
G1 X143.684 Y130.002 E0.01413
G1 X143.897 Y130.355 E0.01296
G1 X144.051 Y130.738 E0.01297
G1 X144.084 Y130.881 E0.00462
G1 X127.173 Y113.970 E0.75175
G1 X126.638 Y113.970 E0.01680
G1 X144.163 Y131.495 E0.77907
G1 X144.158 Y131.740 E0.00770
G1 X144.114 Y131.980 E0.00766
G1 X126.103 Y113.970 E0.80062
G1 X125.569 Y113.970 E0.01680
G1 X143.997 Y132.398 E0.81918
G1 X143.936 Y132.568 E0.00569
G1 X143.830 Y132.766 E0.00704
G1 X125.034 Y113.970 E0.83554
G1 X124.499 Y113.970 E0.01680
G1 X143.616 Y133.087 E0.84981
G1 X143.360 Y133.365 E0.01189
G1 X123.965 Y113.970 E0.86217
G1 X123.430 Y113.970 E0.01680
G1 X143.063 Y133.602 E0.87274
G1 X142.725 Y133.799 E0.01229
G1 X122.896 Y113.970 E0.88148
G1 X122.361 Y113.970 E0.01680
G1 X142.339 Y133.948 E0.88809
G1 X142.067 Y134.021 E0.00886
G1 X141.895 Y134.038 E0.00543
G1 X121.826 Y113.970 E0.89210
G1 X121.292 Y113.970 E0.01680
G1 X141.367 Y134.045 E0.89240
G1 X141.058 Y134.005 E0.00977
G1 X140.672 Y133.885 E0.01271
G1 X120.757 Y113.970 E0.88530
G1 X120.223 Y113.970 E0.01680
G1 X132.283 Y126.030 E0.53612
G1 X131.748 Y126.030 E0.01680
G1 X119.688 Y113.970 E0.53612
G1 X119.153 Y113.970 E0.01680
G1 X131.214 Y126.030 E0.53612
G1 X130.679 Y126.030 E0.01680
G1 X118.619 Y113.970 E0.53612
G1 X118.084 Y113.970 E0.01680
G1 X130.144 Y126.030 E0.53612
G1 X129.610 Y126.030 E0.01680
G1 X117.549 Y113.970 E0.53612
G1 X117.015 Y113.970 E0.01680
G1 X129.075 Y126.030 E0.53612
G1 X128.540 Y126.030 E0.01680
G1 X116.480 Y113.970 E0.53612
G1 X115.946 Y113.970 E0.01680
G1 X128.006 Y126.030 E0.53612
G1 X127.471 Y126.030 E0.01680
G1 X115.411 Y113.970 E0.53612
G1 X114.876 Y113.970 E0.01680
G1 X126.937 Y126.030 E0.53612
G1 X126.402 Y126.030 E0.01680
G1 X114.342 Y113.970 E0.53612
G1 X113.807 Y113.970 E0.01680
G1 X125.867 Y126.030 E0.53612
G1 X125.333 Y126.030 E0.01680
G1 X113.273 Y113.970 E0.53612
G1 X112.738 Y113.970 E0.01680
G1 X124.798 Y126.030 E0.53612
G1 X124.264 Y126.030 E0.01680
G1 X112.203 Y113.970 E0.53612
G1 X111.669 Y113.970 E0.01680
G1 X123.729 Y126.030 E0.53612
G1 X123.194 Y126.030 E0.01680
G1 X111.134 Y113.970 E0.53612
G1 X110.599 Y113.970 E0.01680
G1 X122.660 Y126.030 E0.53612
G1 X122.125 Y126.030 E0.01680
G1 X110.065 Y113.970 E0.53612
G1 X109.530 Y113.970 E0.01680
G1 X121.590 Y126.030 E0.53612
G1 X121.056 Y126.030 E0.01680
G1 X108.996 Y113.970 E0.53612
G1 X108.461 Y113.970 E0.01680
G1 X120.521 Y126.030 E0.53612
G1 X119.987 Y126.030 E0.01680
G1 X107.926 Y113.970 E0.53612
G1 X107.703 Y113.970 E0.00702
G1 X100.275 Y106.555 E0.32992
G1 X99.916 Y106.297 E0.01389
G1 X99.548 Y106.126 E0.01275
G1 X119.452 Y126.030 E0.88480
G1 X118.917 Y126.030 E0.01680
G1 X98.843 Y105.955 E0.89240
G1 X98.553 Y105.938 E0.00912
G1 X98.315 Y105.962 E0.00754
G1 X118.383 Y126.030 E0.89210
G1 X117.848 Y126.030 E0.01680
G1 X97.870 Y106.052 E0.88809
G1 X97.744 Y106.086 E0.00410
G1 X97.486 Y106.202 E0.00891
G1 X117.314 Y126.030 E0.88142
G1 X116.779 Y126.030 E0.01680
G1 X97.146 Y106.397 E0.87274
G1 X96.849 Y106.635 E0.01196
G1 X116.244 Y126.030 E0.86217
G1 X115.710 Y126.030 E0.01680
G1 X96.593 Y106.913 E0.84981
G1 X96.379 Y107.234 E0.01212
G1 X115.175 Y126.030 E0.83554
G1 X114.640 Y126.030 E0.01680
G1 X96.209 Y107.599 E0.81934
G1 X96.090 Y108.014 E0.01359
G1 X114.106 Y126.030 E0.80086
G1 X113.571 Y126.030 E0.01680
G1 X96.049 Y108.508 E0.77892
G1 X96.046 Y108.654 E0.00459
G1 X96.120 Y109.114 E0.01464
G1 X113.037 Y126.030 E0.75199
G1 X112.502 Y126.030 E0.01680
G1 X104.074 Y117.603 E0.37463
G1 X104.074 Y118.137 E0.01680
G1 X111.967 Y126.030 E0.35087
G1 X111.433 Y126.030 E0.01680
G1 X104.074 Y118.672 E0.32710
G1 X104.074 Y119.206 E0.01680
G1 X110.898 Y126.030 E0.30334
G1 X110.364 Y126.030 E0.01680
G1 X104.074 Y119.741 E0.27957
G1 X104.074 Y120.276 E0.01680
G1 X109.829 Y126.030 E0.25581
G1 X109.294 Y126.030 E0.01680
G1 X104.074 Y120.810 E0.23204
G1 X104.074 Y121.345 E0.01680
G1 X108.760 Y126.030 E0.20827
G1 X108.225 Y126.030 E0.01680
G1 X104.074 Y121.880 E0.18451
G1 X104.068 Y122.408 E0.01661
G1 X107.697 Y126.036 E0.16129
G1 X107.429 Y126.304 E0.01188
G1 X103.801 Y122.675 E0.16129
G1 X103.534 Y122.943 E0.01188
G1 X107.162 Y126.571 E0.16129
G1 X106.895 Y126.838 E0.01188
G1 X103.266 Y123.210 E0.16129
G1 X102.999 Y123.477 E0.01188
